resources/svg/subscript.svg

<svg xmlns="http://www.w3.org/2000/svg" viewBox="0 0 15 15" fill="currentColor"><path fill-rule="evenodd" clip-rule="evenodd" d="M6.00001 8.33333L1.90001 13.8L1.10001 13.2L5.37501 7.5L1.10001 1.8L1.90001 1.2L6.00001 6.66667L10.1 1.2L10.9 1.8L6.62501 7.5L10.9 13.2L10.1 13.8L6.00001 8.33333ZM12 12.5C12 11.6716 12.6716 11 13.5 11H13.7929C14.4596 11 15 11.5404 15 12.2071C15 12.5273 14.8728 12.8343 14.6465 13.0607L13.7071 14H15V15H12.5C12.2978 15 12.1155 14.8782 12.0381 14.6913C11.9607 14.5045 12.0035 14.2894 12.1465 14.1464L13.9393 12.3536C13.9782 12.3147 14 12.262 14 12.2071C14 12.0927 13.9073 12 13.7929 12H13.5C13.2239 12 13 12.2239 13 12.5H12Z" fill="black"/></svg>

<svg xmlns="http://www.w3.org/2000/svg" viewBox="0 0 15 15" fill="currentColor"><path fill-rule="evenodd" clip-rule="evenodd" d="M6 8.333L1.9 13.8l-.8-.6 4.275-5.7L1.1 1.8l.8-.6L6 6.667 10.1 1.2l.8.6-4.275 5.7 4.275 5.7-.8.6L6 8.333zm6 4.167a1.5 1.5 0 011.5-1.5h.293a1.207 1.207 0 01.854 2.06l-.94.94H15v1h-2.5a.5.5 0 01-.354-.854l1.793-1.792a.207.207 0 00-.146-.354H13.5a.5.5 0 00-.5.5h-1z" fill="currentColor"/></svg>
